X: 18543
T: I Have It Somewhere
R: jig
M: 6/8
K: Amajor
|:c2B ABA|Bce f2e|ffa f2e|ffa fec|
c2B ABA|Bce f2e|ffa fec|1 ecB A3:|2 ecB Ace||
|:fAA eAA|ecB c2e|fAA eAA|faf fec|
fAA eAA|ecB c2e|faf eaf|1 eaf ece:|2 eaf ecB||

